X:1
T:Title
%%score { ( 1 3 ) | ( 2 4 ) }
L:1/8
M:4/4
K:Eb
V:1 treble nm="Grand Piano"
V:3 treble 
V:2 bass 
V:4 bass 
V:1
 z4 z2[Q:1/4=100] B,2 | E2 E>G B2 B>B | c2 G2 B4 | e2 B>B A2 G>G | BB G2 [B,DF]3 [A,DF] | %5
 [G,DG]2 [G,DG]>[G,DF] [G,CE]2 [CEG][CEG] | [B,FB]2 [B,DB]>[B,FA] [B,EG]2 [B,GB]>[Gc] | %7
 d2 B>d [Bf]2 d2 |[M:7/8] c2 c d [DB]3 |[M:1/4] B2 |[M:4/4] e6 B2 | c6 z2 | B2 d>c B2 [FA]2 | %13
 G6[K:bass] z2 | [A,EA]2 [A,EA]>[A,EA] [E=A][EA] z [EA] | [EB]2 B2 c3 e | %16
 e2 G>A B2 B2[Q:1/4=98][Q:1/4=97][Q:1/4=95][Q:1/4=94][Q:1/4=92][Q:1/4=91][Q:1/4=89][Q:1/4=88][Q:1/4=86][Q:1/4=84][Q:1/4=83][Q:1/4=81][Q:1/4=80][Q:1/4=78][Q:1/4=77] | %17
[M:7/8] z2 d2 z z2 |] %18
V:2
 z4 z2 B,,2 | E,2 E,>G, B,2 B,>B, | C2 G,2 B,4 | %3
 [G,B,E]2 [G,B,E]>[G,B,E] [F,B,D]2 [E,B,E]>[E,B,E] | [G,B,E][G,B,E] [E,B,E]2 B,,3 B,, | %5
 =B,,2 B,,>B,, C,2 C,C, | D,2 B,,>D, E,2 =E,>[E,B,] | [F,B,F]2 [F,B,D]>[F,B,F] [F,D]2 [F,B,F]2 | %8
[M:7/8] [F,=A,E]2 [F,A,E] [F,A,F] [B,,B,]3 |[M:1/4][K:treble] [B,DA]>[B,D] | %10
[M:4/4][K:bass] [E,E]2 [E,E]>[E,E] [E,E]2 z [E,E] | [A,EA]2 [A,E]2[K:bass] [A,E]2 (3F,G,A, | %12
 B,2[K:treble] [B,FA]>[B,EA] [B,DG]2[K:bass] [B,,B,]2 | [E,B,E]2 [E,B,]2 [E,B,]2 _D,,2 | %14
 C,2 C,>C, [=B,,_G,][B,,G,] z [B,,G,] | [B,,G,]2[K:treble] [B,EG]2 [=A,E_G]3 [A,CG] | %16
 [B,EG]2 G,>[K:bass]A, B,2 [G,B,E]2 |[M:7/8] z2[K:treble] F z[K:bass] z z2 |] %18
V:3
 x8 | x8 | x8 | x8 | x8 | x8 | x8 | x8 |[M:7/8] x7 |[M:1/4] z z/ A/ |[M:4/4] G2 G>G G2 z G | %11
 z2 A2 A2 (3FGA | x8 | z2 E2 E2[K:bass] _D,2 | x8 | x8 | x8 |[M:7/8] c2 z A [Ge]3 |] %18
V:4
 x8 | x8 | x8 | x8 | x8 | x8 | x8 | x8 |[M:7/8] x7 |[M:1/4][K:treble] x2 |[M:4/4][K:bass] x8 | %11
 x4[K:bass] x4 | x2[K:treble] x4[K:bass] x2 | x8 | x8 | x2[K:treble] x6 | x7/2[K:bass] x9/2 | %17
[M:7/8] [F,=A,E]2[K:treble] B,2[K:bass] [E,B,]3 |] %18

